icons/wait2.svg

<?xml version="1.0" encoding="UTF-8"?>
<svg width="48px" height="48px" viewBox="0 0 48 48" version="1.1" xmlns="http://www.w3.org/2000/svg" xmlns:xlink="http://www.w3.org/1999/xlink">
    <!-- Generator: Sketch 49.3 (51167) - http://www.bohemiancoding.com/sketch -->
    <title>wait2</title>
    <desc>Created with Sketch.</desc>
    <defs></defs>
    <g id="wait2" stroke="none" stroke-width="1" fill="none" fill-rule="evenodd">
        <g id="Page-1" transform="translate(2.000000, 5.000000)">
            <path d="M2.61912438,38 L2.61912438,23.9032258 L0,23.9032258 L0,13.5655914 C0,11.4980647 1.5714748,9.80645161 3.49216584,9.80645161 L8.73041461,9.80645161 C10.6511065,9.80645161 12.2225804,11.4980647 12.2225804,13.5655914 L12.2225804,23.9032258 L9.60345607,23.9032258 L9.60345607,38 L2.61912438,38 Z M6.11129022,7.35483871 C8.14634932,7.35483871 9.77806436,5.71838728 9.77806436,3.67741935 C9.77806436,1.63645143 8.14634932,0 6.11129022,0 C4.07623113,0 2.44451609,1.63645143 2.44451609,3.67741935 C2.44451609,5.71838728 4.0762304,7.35483871 6.11129022,7.35483871 Z" id="P1" fill="#000000"></path>
            <path d="M18.508479,38 L18.508479,23.9032258 L15.8893546,23.9032258 L15.8893546,13.5655914 C15.8893546,11.4980647 17.4608294,9.80645161 19.3815204,9.80645161 L24.6197692,9.80645161 C26.5404611,9.80645161 28.111935,11.4980647 28.111935,13.5655914 L28.111935,23.9032258 L25.4928106,23.9032258 L25.4928106,38 L18.508479,38 Z M22.0006448,7.35483871 C24.0357039,7.35483871 25.6674189,5.71838728 25.6674189,3.67741935 C25.6674189,1.63645143 24.0357039,0 22.0006448,0 C19.9655857,0 18.3338707,1.63645143 18.3338707,3.67741935 C18.3338707,5.71838728 19.965585,7.35483871 22.0006448,7.35483871 Z" id="P2" fill="#000000"></path>
            <path d="M34.3978335,38 L34.3978335,23.9032258 L31.7787092,23.9032258 L31.7787092,13.5655914 C31.7787092,11.4980647 33.350184,9.80645161 35.270875,9.80645161 L40.5091238,9.80645161 C42.4298157,9.80645161 44.0012896,11.4980647 44.0012896,13.5655914 L44.0012896,23.9032258 L41.3821652,23.9032258 L41.3821652,38 L34.3978335,38 Z M37.8899994,7.35483871 C39.9250585,7.35483871 41.5567735,5.71838728 41.5567735,3.67741935 C41.5567735,1.63645143 39.9250585,0 37.8899994,0 C35.8549403,0 34.2232253,1.63645143 34.2232253,3.67741935 C34.2232253,5.71838728 35.8549396,7.35483871 37.8899994,7.35483871 Z" id="P3" fill="#BCBCBC"></path>
        </g>
    </g>
</svg>

<svg width="48" height="48" viewBox="0 0 48 48" xmlns="http://www.w3.org/2000/svg"><g id="wait2" fill="none" fill-rule="evenodd"><g id="Page-1" transform="translate(2.000000, 5.000000)"><path d="M2.62 38V23.903H0V13.566c0-2.068 1.571-3.76 3.492-3.76H8.73c1.921 0 3.493 1.692 3.493 3.76v10.337h-2.62V38H2.62zM6.11 7.355a3.66 3.66 0 0 0 3.667-3.678A3.66 3.66 0 0 0 6.111 0a3.66 3.66 0 0 0-3.666 3.677A3.66 3.66 0 0 0 6.11 7.355z" id="P1" fill="#000"/><path d="M18.508 38V23.903H15.89V13.566c0-2.068 1.572-3.76 3.493-3.76h5.238c1.92 0 3.492 1.692 3.492 3.76v10.337h-2.62V38h-6.984zm3.493-30.645a3.66 3.66 0 0 0 3.666-3.678A3.66 3.66 0 0 0 22.001 0a3.66 3.66 0 0 0-3.667 3.677A3.66 3.66 0 0 0 22 7.355z" id="P2" fill="#000"/><path d="M34.398 38V23.903h-2.62V13.566c0-2.068 1.572-3.76 3.493-3.76h5.238c1.92 0 3.492 1.692 3.492 3.76v10.337h-2.619V38h-6.984zM37.89 7.355a3.66 3.66 0 0 0 3.667-3.678A3.66 3.66 0 0 0 37.89 0a3.66 3.66 0 0 0-3.667 3.677 3.66 3.66 0 0 0 3.667 3.678z" id="P3" fill="#BCBCBC"/></g></g></svg>
